public/assets/twitter.svg

<svg width="20" height="30" viewBox="0 0 20 30" fill="none" xmlns="http://www.w3.org/2000/svg">
<path d="M5.27344 0V2.63672V2.64038V2.64061C5.27138 5.04662 3.31512 7.03125 0.878906 7.03125H0V14.0625H3.51562V20.332C3.51562 25.6629 7.85271 30 13.1836 30H19.3359V21.2109H13.1836C12.6991 21.2109 12.3047 20.8166 12.3047 20.332V14.0625H19.3359V7.03125H12.3047V0H5.27344ZM17.5781 8.78906V12.3047H10.5469V20.332C10.5469 21.7859 11.7297 22.9688 13.1836 22.9688H17.5781V28.2422H13.1836C8.82202 28.2422 5.27344 24.6936 5.27344 20.332V12.3047H1.75781V8.72658C2.98485 8.55034 4.0963 8.01041 4.97887 7.22008L4.9807 7.22237C6.23108 6.10313 7.03125 4.45862 7.03125 2.63672V1.75781H10.5469V8.78906H17.5781Z" fill="#F87E0F"/>
</svg>

<svg width="20" height="30" fill="none" xmlns="http://www.w3.org/2000/svg"><path d="M5.273 0v2.64A4.4 4.4 0 01.88 7.032H0v7.032h3.516v6.269c0 5.33 4.337 9.668 9.668 9.668h6.152v-8.79h-6.152a.88.88 0 01-.88-.878v-6.27h7.032v-7.03h-7.031V0H5.273zm12.305 8.79v3.515h-7.031v8.027a2.64 2.64 0 002.637 2.637h4.394v5.273h-4.394c-4.362 0-7.91-3.548-7.91-7.91v-8.027H1.757V8.727a6.133 6.133 0 003.22-1.507l.003.002a6.155 6.155 0 002.05-4.585v-.88h3.516V8.79h7.031z" fill="#F87E0F"/></svg>
